assets/svg/separator-simple-inversed.svg

<?xml version="1.0" encoding="UTF-8" standalone="no"?>
<svg width="196px" height="12px" viewBox="0 0 196 12" version="1.1" xmlns="http://www.w3.org/2000/svg" xmlns:xlink="http://www.w3.org/1999/xlink" xmlns:sketch="http://www.bohemiancoding.com/sketch/ns">
    <!-- Generator: Sketch 3.2.2 (9983) - http://www.bohemiancoding.com/sketch -->
    <title>Slice 1</title>
    <desc>Created with Sketch.</desc>
    <defs></defs>
    <g id="Page-1" stroke="none" stroke-width="1" fill="none" fill-rule="evenodd" sketch:type="MSPage">
        <path d="M93,5.34314575 L98,0.343145751 L103,5.34314575 L103,5.34314575 L108,0.343145751 L113.156854,5.5 L195.5,5.5 L195.5,6.5 L113.156854,6.5 L108,11.6568542 L103,6.65685425 L98,11.6568542 L93,6.65685425 L88,11.6568542 L82.8431458,6.5 L0.5,6.5 L0.5,5.5 L82.8431458,5.5 L88,0.343145751 L93,5.34314575 L93,5.34314575 Z M0,0 L196,0 L196,12 L0,12 L0,0 Z M93.7573593,6 L98,1.75735931 L102.242641,6 L98,10.2426407 L93.7573593,6 Z M83.7573593,6 L88,1.75735931 L92.2426407,6 L88,10.2426407 L83.7573593,6 Z M103.757359,6 L108,1.75735931 L112.242641,6 L108,10.2426407 L103.757359,6 Z" id="Rectangle-11" fill="white" sketch:type="MSShapeGroup"></path>
    </g>
</svg>

<svg width="196" height="12" xmlns="http://www.w3.org/2000/svg"><path d="M93 5.3431l5-5 5 5 5-5L113.1569 5.5H195.5v1h-82.3431L108 11.6569l-5-5-5 5-5-5-5 5L82.8431 6.5H.5v-1h82.3431L88 .3431l5 5zM0 0h196v12H0V0zm93.7574 6L98 1.7574 102.2426 6 98 10.2426 93.7574 6zm-10 0L88 1.7574 92.2426 6 88 10.2426 83.7574 6zm20 0L108 1.7574 112.2426 6 108 10.2426 103.7574 6z" fill="#fff" fill-rule="evenodd"/></svg>
